images/instagram-steal.svg

<svg xmlns="http://www.w3.org/2000/svg" viewBox="0 0 66.6 66.6" enable-background="new 0 0 66.6 66.6"><path fill="#13CFB0" d="M8.5 0h49.5c4.7 0 8.5 3.8 8.5 8.5v49.5c0 4.7-3.8 8.5-8.5 8.5h-49.5c-4.7.1-8.5-3.8-8.5-8.5v-49.5c0-4.7 3.8-8.5 8.5-8.5zm40 7.4c-1.7 0-3 1.4-3 3v7.2c0 1.7 1.3 3 3 3h7.5c1.6 0 3-1.3 3-3v-7.2c0-1.7-1.3-3-3-3h-7.5zm10.6 20.8h-5.9c.6 1.8.9 3.7.9 5.7 0 11.1-9.3 20.1-20.7 20.1-11.4 0-20.7-9-20.7-20.1 0-2 .3-3.9.9-5.7h-6.2v28.1c0 1.5 1.2 2.6 2.6 2.6h46.4c1.5 0 2.6-1.2 2.6-2.6v-28.1zm-25.7-8c-7.4 0-13.4 5.8-13.4 13s6 13 13.4 13 13.4-5.8 13.4-13c-.1-7.2-6.1-13-13.4-13z"/></svg>

<?xml version="1.0" encoding="utf-8"?>
<!-- Generator: Adobe Illustrator 21.1.0, SVG Export Plug-In . SVG Version: 6.00 Build 0)  -->
<svg version="1.1" id="Layer_1" xmlns="http://www.w3.org/2000/svg" xmlns:xlink="http://www.w3.org/1999/xlink" x="0px" y="0px"
	 viewBox="0 0 66.6 66.6" style="enable-background:new 0 0 66.6 66.6;" xml:space="preserve">
<style type="text/css">
	.st0{fill:#6ECBD9;}
</style>
<path class="st0" d="M8.5,0H58c4.7,0,8.5,3.8,8.5,8.5V58c0,4.7-3.8,8.5-8.5,8.5H8.5C3.8,66.6,0,62.7,0,58V8.5C0,3.8,3.8,0,8.5,0z
	 M48.5,7.4c-1.7,0-3,1.4-3,3v7.2c0,1.7,1.3,3,3,3H56c1.6,0,3-1.3,3-3v-7.2c0-1.7-1.3-3-3-3C56,7.4,48.5,7.4,48.5,7.4z M59.1,28.2
	h-5.9c0.6,1.8,0.9,3.7,0.9,5.7C54.1,45,44.8,54,33.4,54s-20.7-9-20.7-20.1c0-2,0.3-3.9,0.9-5.7H7.4v28.1c0,1.5,1.2,2.6,2.6,2.6h46.4
	c1.5,0,2.6-1.2,2.6-2.6V28.2L59.1,28.2z M33.4,20.2C26,20.2,20,26,20,33.2s6,13,13.4,13s13.4-5.8,13.4-13
	C46.7,26,40.7,20.2,33.4,20.2z"/>
</svg>
